src/assets/auctionStep.svg

<svg height="23" viewBox="0 0 24 23" width="24" xmlns="http://www.w3.org/2000/svg"><path d="m86.9841192 29c-1.5088426 0-2.8513561.950452-3.3503434 2.3761301h-7.3422421v2.3761301h2.3167269l-3.5047919 8.3164554c-.5583906 2.3761301 1.188065 3.5641951 4.1582277 3.5641951 2.9701626 0 4.8235441-1.188065 4.1582277-3.5641951l-3.5047919-8.3164554h3.7067629c.3920615 1.0098553 1.1643038 1.7820976 2.1741591 2.174159v13.2706867h-10.6925855v2.3761301h23.761301v-2.3761301h-10.6925854v-13.2825673c1.0098553-.3801808 1.7820975-1.1524231 2.1622784-2.1622784h3.7186436l-3.5047919 8.3164554c-.5583906 2.3761301 1.188065 3.5641951 4.1582276 3.5641951 2.9701627 0 4.8235441-1.188065 4.1582277-3.5641951l-3.5047919-8.3164554h2.3167269v-2.3761301h-7.3303614c-.510868-1.4256781-1.8533815-2.3761301-3.3622241-2.3761301zm0 2.3761301c.6561502 0 1.1880651.5319148 1.1880651 1.1880651 0 .6561502-.5319149 1.188065-1.1880651 1.188065s-1.188065-.5319148-1.188065-1.188065c0-.6561503.5319148-1.1880651 1.188065-1.1880651zm-7.7224228 6.2373415 1.7820976 4.455244h-3.5641952zm15.4448456 0 1.7820976 4.455244h-3.5641951z" fill="#7c7c8c" transform="translate(-75 -29)"/></svg>

<?xml version="1.0" encoding="UTF-8"?>
<svg width="24px" height="23px" viewBox="0 0 24 23" version="1.1" xmlns="http://www.w3.org/2000/svg" xmlns:xlink="http://www.w3.org/1999/xlink">
    <g id="a" stroke="none" stroke-width="1" fill="none" fill-rule="evenodd">
        <g id="b" transform="translate(-630.000000, -610.000000)" fill-rule="nonzero" fill="#7c7c8c">
            <g id="c" transform="translate(317.000000, 189.000000)">
                <g id="d" transform="translate(0.000000, 351.000000)">
                    <g id="e" transform="translate(238.000000, 41.000000)">
                        <path d="M86.9841192,29 C85.4752766,29 84.1327631,29.950452 83.6337758,31.3761301 L76.2915337,31.3761301 L76.2915337,33.7522602 L78.6082606,33.7522602 L75.1034687,42.0687156 C74.5450781,44.4448457 76.2915337,45.6329107 79.2616964,45.6329107 C82.231859,45.6329107 84.0852405,44.4448457 83.4199241,42.0687156 L79.9151322,33.7522602 L83.6218951,33.7522602 C84.0139566,34.7621155 84.7861989,35.5343578 85.7960542,35.9264192 L85.7960542,49.1971059 L75.1034687,49.1971059 L75.1034687,51.573236 L98.8647697,51.573236 L98.8647697,49.1971059 L88.1721843,49.1971059 L88.1721843,35.9145386 C89.1820396,35.5343578 89.9542818,34.7621155 90.3344627,33.7522602 L94.0531063,33.7522602 L90.5483144,42.0687156 C89.9899238,44.4448457 91.7363794,45.6329107 94.706542,45.6329107 C97.6767047,45.6329107 99.5300861,44.4448457 98.8647697,42.0687156 L95.3599778,33.7522602 L97.6767047,33.7522602 L97.6767047,31.3761301 L90.3463433,31.3761301 C89.8354753,29.950452 88.4929618,29 86.9841192,29 L86.9841192,29 Z M86.9841192,31.3761301 C87.6402694,31.3761301 88.1721843,31.9080449 88.1721843,32.5641952 C88.1721843,33.2203454 87.6402694,33.7522602 86.9841192,33.7522602 C86.327969,33.7522602 85.7960542,33.2203454 85.7960542,32.5641952 C85.7960542,31.9080449 86.327969,31.3761301 86.9841192,31.3761301 L86.9841192,31.3761301 Z M79.2616964,37.6134716 L81.043794,42.0687156 L77.4795988,42.0687156 L79.2616964,37.6134716 L79.2616964,37.6134716 Z M94.706542,37.6134716 L96.4886396,42.0687156 L92.9244445,42.0687156 L94.706542,37.6134716 Z" id="Shape"></path>
                    </g>
                </g>
            </g>
        </g>
    </g>
</svg>
